X: 1
T: Ingrid Dardels polska
R: hambo-polska
C: Evert Taube
Z: John Chambers <jc@trillian.mit.edu>
M: 3/4
L: 1/8
K: D
|: "D"F>G A2>>G2 | F>G A4 | "G"G>A B2>>A2 | "Em"G>A B4 | "A7"A>B c>d e>f | (3gfe c2>>B2 | A>B  c>d e>f | "D"ga f4 ||
|| "D"F>G A2>>G2 | F>G A4 | "G"G>A B2>>A2 | "Em"G>A B4 | "A7"A>B c>d e>f | (3gfe c2>>B2 | A>B  c>d e>f | "A7"(3gfe "D"d4 :|
|: "G"B>B g2 g>g | B2 g4 | "D"A>A f2 f>f | A2 f4 | "A7"A>B c>d e>f | (3gfe c3 B | A>B c>d e>f | "D"ga f4 ||
|| "G"B>B g2 g>g | B2 g4 | "D"A>A f2 f>f | A2 f4 | "Em"b>a g>a g>f | "A7"e>d  c3 B | A>A B>B c>c | "D"d2 d4 :|
